COLOR/action 16/16/text-orientation-auto.svg

<svg height="16" width="16" xmlns="http://www.w3.org/2000/svg"><path d="m8.0987647 11.061728v.987654h1.9753093v2.962964h-1.9753093v.987654h4.9382723c1.975309 0 1.975309-2.469136 1.975309-2.469136s0-2.469136-1.975309-2.469136zm2.9629633.987654h1.481482c1.481481 0 1.481481 1.481482 1.481481 1.481482s0 1.481482-1.481481 1.481482h-1.481482zm-1.4814813-8.88889s-.493828 0-.493828.493828c0 .493827.493828.493827.493828.493827h2.9629633l-1.481482 1.234568v.740741h-3.4567907s-.4938272 0-.4938272.493827.4938272.493827.4938272.493827h3.4567907v1.975309h-1.4814813s-.493828 0-.493828.493827.493828.493827.493828.493827h1.4814813s.987655 0 .987655-.987654v-1.975309h3.45679s.493827 0 .493827-.493827-.493827-.493827-.493827-.493827h-3.45679v-.246914s1.975308-1.234568 1.975308-1.728395c0-.987655-.987654-.987655-.987654-.987655zm.9876543-2.962963c-.493827 0-.493827.4938273-.493827.4938273v.4938272h-2.4691367c-.4938272 0-.4938272.4938272-.4938272.4938272v.9876543s0 .493827.4938272.493827c.4938274 0 .4938274-.493827.4938274-.493827v-.493827h6.9135813v.493827s0 .493827.493827.493827.493827-.493827.493827-.493827v-.9876543s0-.4938272-.493827-.4938272h-4.444445v-.4938272s0-.4938273-.493827-.4938273z" fill="#1a7fd4" stroke-width=".987654"/><path d="m2.5300742 1.5094215h1.2650371v2.9828125 5.071768h2.5300742l-3.1931864 6.040935-3.1319991-6.040935h2.5300742z" fill="#c43ac4" fill-rule="evenodd" stroke-width="1.596038"/></svg>

<?xml version="1.0" encoding="UTF-8" standalone="no"?>
<svg
   xmlns:dc="http://purl.org/dc/elements/1.1/"
   xmlns:cc="http://creativecommons.org/ns#"
   xmlns:rdf="http://www.w3.org/1999/02/22-rdf-syntax-ns#"
   xmlns:svg="http://www.w3.org/2000/svg"
   xmlns="http://www.w3.org/2000/svg"
   xmlns:sodipodi="http://sodipodi.sourceforge.net/DTD/sodipodi-0.dtd"
   xmlns:inkscape="http://www.inkscape.org/namespaces/inkscape"
   height="16"
   width="16"
   version="1.1"
   id="svg6"
   sodipodi:docname="text-orientation-auto.svg"
   inkscape:version="0.92.4 (5da689c313, 2019-01-14)">
  <metadata
     id="metadata12">
    <rdf:RDF>
      <cc:Work
         rdf:about="">
        <dc:format>image/svg+xml</dc:format>
        <dc:type
           rdf:resource="http://purl.org/dc/dcmitype/StillImage" />
        <dc:title></dc:title>
      </cc:Work>
    </rdf:RDF>
  </metadata>
  <defs
     id="defs10" />
  <sodipodi:namedview
     pagecolor="#ffffff"
     bordercolor="#666666"
     borderopacity="1"
     objecttolerance="10"
     gridtolerance="10"
     guidetolerance="10"
     inkscape:pageopacity="0"
     inkscape:pageshadow="2"
     inkscape:window-width="1245"
     inkscape:window-height="824"
     id="namedview8"
     showgrid="false"
     inkscape:zoom="9.8333333"
     inkscape:cx="0.45762712"
     inkscape:cy="12"
     inkscape:window-x="0"
     inkscape:window-y="27"
     inkscape:window-maximized="0"
     inkscape:current-layer="svg6" />
  <path
     d="m 8.0987647,11.061728 v 0.987654 h 1.9753093 v 2.962964 H 8.0987647 V 16 h 4.9382723 c 1.975309,0 1.975309,-2.469136 1.975309,-2.469136 0,0 0,-2.469136 -1.975309,-2.469136 z m 2.9629633,0.987654 h 1.481482 c 1.481481,0 1.481481,1.481482 1.481481,1.481482 0,0 0,1.481482 -1.481481,1.481482 H 11.061728 Z M 9.5802467,3.160492 c 0,0 -0.493828,0 -0.493828,0.493828 0,0.493827 0.493828,0.493827 0.493828,0.493827 H 12.54321 L 11.061728,5.382715 V 6.123456 H 7.6049373 c 0,0 -0.4938272,0 -0.4938272,0.493827 0,0.493827 0.4938272,0.493827 0.4938272,0.493827 H 11.061728 V 9.086419 H 9.5802467 c 0,0 -0.493828,0 -0.493828,0.493827 0,0.493827 0.493828,0.493827 0.493828,0.493827 h 1.4814813 c 0,0 0.987655,0 0.987655,-0.987654 V 7.11111 h 3.45679 c 0,0 0.493827,0 0.493827,-0.493827 0,-0.493827 -0.493827,-0.493827 -0.493827,-0.493827 h -3.45679 V 5.876542 c 0,0 1.975308,-1.234568 1.975308,-1.728395 0,-0.987655 -0.987654,-0.987655 -0.987654,-0.987655 z M 10.567901,0.197529 c -0.493827,0 -0.493827,0.4938273 -0.493827,0.4938273 V 1.1851835 H 7.6049373 c -0.4938272,0 -0.4938272,0.4938272 -0.4938272,0.4938272 V 2.666665 c 0,0 0,0.493827 0.4938272,0.493827 0.4938274,0 0.4938274,-0.493827 0.4938274,-0.493827 V 2.172838 h 6.9135813 v 0.493827 c 0,0 0,0.493827 0.493827,0.493827 C 16,3.160492 16,2.666665 16,2.666665 V 1.6790107 c 0,0 0,-0.4938272 -0.493827,-0.4938272 H 11.061728 V 0.6913563 c 0,0 0,-0.4938273 -0.493827,-0.4938273 z"
     id="path2"
     inkscape:connector-curvature="0"
     style="fill:#1a7fd4;stroke-width:0.98765445" />
  <path
     d="M 2.5300742,1.5094215 H 3.7951113 V 4.492234 9.564002 H 6.3251855 L 3.1319991,15.604937 0,9.564002 h 2.5300742 z"
     id="path4"
     inkscape:connector-curvature="0"
     style="fill:#c43ac4;fill-rule:evenodd;stroke-width:1.59603751" />
</svg>
